svgs/thin/camera-security.svg

<svg xmlns="http://www.w3.org/2000/svg" viewBox="0 0 448 512"><!--! Font Awesome Pro 6.3.0 by @fontawesome - https://fontawesome.com License - https://fontawesome.com/license (Commercial License) Copyright 2023 Fonticons, Inc. --><path d="M384 0h-320c-35.35 0-64 28.65-64 64v288c0 35.35 28.65 64 64 64H116.8l-47.2 56.63c-6.031 7.234-7.297 17.02-3.297 25.55C70.28 506.7 78.59 512 88.02 512h271.1c9.422 0 17.73-5.297 21.72-13.83c4-8.531 2.734-18.31-3.297-25.55L331.2 416h52.79c35.35 0 64-28.65 64-64V64C448 28.65 419.3 0 384 0zM366.1 482.9c3.016 3.625 1.594 7.438 1.094 8.516S364.7 496 359.1 496H88.03c-4.719 0-6.75-3.531-7.25-4.609s-1.922-4.891 1.094-8.516L137.6 416h172.8L366.1 482.9zM432 352c0 26.47-21.53 48-48 48h-320c-26.47 0-47.1-21.53-47.1-48V64c0-26.47 21.53-48 47.1-48h320c26.47 0 48 21.53 48 48V352zM224 80c-70.69 0-127.1 57.31-127.1 128c0 70.69 57.31 128 127.1 128c70.69 0 128-57.31 128-128C352 137.3 294.7 80 224 80zM224 320c-61.76 0-112-50.24-112-112s50.24-112 112-112c61.76 0 112 50.24 112 112S285.8 320 224 320z"/></svg>

<svg xmlns="http://www.w3.org/2000/svg" viewBox="0 0 448 512"><!-- Font Awesome Pro 6.0.0-alpha2 by @fontawesome - https://fontawesome.com License - https://fontawesome.com/license (Commercial License) --><path d="M384 0H64C28.654 0 0 28.654 0 64V352C0 387.346 28.654 416 64 416H116.793L69.594 472.625C63.562 479.859 62.297 489.641 66.297 498.172C70.281 506.703 78.609 512 88.031 512H359.969C369.391 512 377.719 506.703 381.703 498.172C385.703 489.641 384.437 479.859 378.406 472.625L331.207 416H384C419.348 416 448 387.346 448 352V64C448 28.654 419.348 0 384 0ZM366.125 482.875C369.141 486.5 367.719 490.313 367.219 491.391S364.687 496 359.969 496H88.031C83.312 496 81.281 492.469 80.781 491.391S78.859 486.5 81.875 482.875L137.619 416H310.381L366.125 482.875ZM432 352C432 378.467 410.467 400 384 400H64C37.533 400 16 378.467 16 352V64C16 37.533 37.533 16 64 16H384C410.467 16 432 37.533 432 64V352ZM224 80C153.309 80 96 137.307 96 208C96 278.691 153.309 336 224 336C294.693 336 352 278.691 352 208C352 137.307 294.693 80 224 80ZM224 320C162.244 320 112 269.758 112 208S162.244 96 224 96C285.758 96 336 146.242 336 208S285.758 320 224 320Z"/></svg>
